X:1
T:I Left It All with Jesus
T:I Left It All with Jesus
T:James McGranahan
T:Ellen H. Willis, 1875
T:Public Domain Courtesy of the Cyber Hymnal™
T:Public Domain Courtesy of the Cyber Hymnal™
C:James McGranahan
Z:Public Domain
Z:Courtesy of the Cyber Hymnal™
%%score ( 1 2 ) ( 3 4 )
L:1/8
Q:1/4=112
M:4/4
K:A
V:1 treble 
V:2 treble 
V:3 bass 
V:4 bass 
V:1
 [CE][CA] | [Ec][Ec][Fd][Ec] [Ec][CA][DA][DF] | E6 [CG][CA] | [DB]2 [DE]2 [DF][DG][CA][DB] | %4
w: 1.~Oh, I|left it all with Je- sus, long a-|go (long a-|go); All my sins I brought|
w: 2.~Oh, I|leave it all with Je- sus, for He|knows (for He|knows) How to steal the bit-|
w: 3.~Oh, I|leave it all with Je- sus, day by|day (day by|day); Faith can firm- ly trust|
w: 4.~Leave, oh|leave it all with Je- sus, droop- ing|soul (droop- ing|soul); Tell not half thy sto-|
 c6 [CA][DB] | [Ec][Ec][Fd][Ec] [Ec][CA][DA][DF] | E6 [CG][CA] | [DB]2 [DE]2 [Ec][DB][CA][B,G] | %8
w: Him and my|woe (and my woe); When by faith I|saw Him bleed-|ing on the tree (on the|
w: ter from life’s|woes (from life’s woes) How to gild the|tear of sor-|row with His smile (with His|
w: Him, come what|may (come what may); Hope has dropped for|aye her an-|chor, found her rest (found her|
w: ry, but the|whole (but the whole); Worlds on worlds are|hang- ing ev-|er on His hand (on His|
 A6 ||"^Refrain" [CA][EG] | [DF][DF][DF][DF] [FA][^EG][FA][DF] | ([CE]2 [EA]2 [Ac]2) [Ac][Gd] | %12
w: tree);|Heard His|still small whis- per, “’Tis for thee!” (“’Tis|for * * thee!”) From|
w: smile)|Make the|des- ert gar- den bloom a- while (bloom|a- * * while) Then|
w: rest)|In the|calm, sure ha- ven of His breast (of|His * * breast). Love|
w: hand),|Life and|death are wait- ing His com- mand (His|com- * * mand). Yet|
 e4- (ec)[EA][Ec] | B6 [CA][DB] | [Ec][Ec][Fd][Ec] [Ec][CA][DA][DF] | E6 [CG][CA] | %16
w: my * * wear- y|heart the bur-|den rolled a- way; Hap- py day! hap-|py day! From|
w: with * * all my|weak- ness lean-|ing on His might, All is light! All|is light! Then|
w: es- * * teems it|joy of hea-|ven to a- bide At His side! At|His side! Love|
w: His * * ten- der,|lov- ing mer-|cy makes thee room: Oh, come home! Oh,|come home! Yet|
 (B4- BE)!fermata![Ec][DB] | [CA]6 |] %18
w: my * * wear- y|heart|
w: with * * all my|weak-|
w: es- * * teems it|joy|
w: His * * ten- der,|lov-|
V:2
 x2 | x8 | C2 CC C2 x2 | x8 | E2 EE E2 x2 | x8 | C2 CC C2 x2 | x8 | C2 DD C2 || x2 | x8 | x8 | %12
 A6 x2 | (E4 ED) x2 | x8 | (C2 CC C2) x2 | D6 x2 | x6 |] %18
V:3
 [A,,A,][A,,E,] | [A,,A,][A,,A,][A,,A,][A,,A,] [A,,A,][A,,A,][D,F,][D,A,] | %2
 [A,,A,]2 [A,,A,][A,,A,] [A,,A,]2 [A,,E,][A,,E,] | [E,G,]2 [E,G,]2 [E,G,][E,B,][E,A,][E,G,] | %4
 [A,,A,]2 [A,,A,][A,,A,] [A,,A,]2 [A,,A,][A,,A,] | %5
 [A,,A,][A,,A,][A,,A,][A,,A,] [A,,A,][A,,E,][D,F,][D,A,] | %6
 [A,,A,]2 [A,,A,][A,,A,] [A,,A,]2 [A,,E,][A,,E,] | [E,G,]2 [E,G,]2 [E,A,][E,G,][E,A,]E, | %8
 E,2 F,F, E,2 || [A,,A,][C,A,] | [D,A,][D,A,][D,A,][D,A,] [D,D][D,D][D,D][F,A,] | %11
 (A,2 C2 E2) [A,E][E,D] | C4- CE[A,C]A, | [E,G,]6 [E,A,][E,G,] | %14
 [A,,A,][A,,A,][A,,A,][A,,A,] [A,,A,][A,,E,][D,F,][D,A,] | %15
 [A,,A,]2 [A,,A,][A,,A,] [A,,A,]2 [A,,E,][A,,E,] | G,4- G,B,!fermata![E,A,]E, | [A,,E,]6 |] %18
V:4
 x2 | x8 | x8 | x8 | x8 | x8 | x8 | x7 E, | A,,6 || x2 | x8 | A,6 x2 | A,6 A, x | x8 | x8 | x8 | %16
 E,6 E, x | x6 |] %18

